assets/sass.svg

<svg width="128" height="100" viewBox="0 0 128 100" fill="none" xmlns="http://www.w3.org/2000/svg">
<path d="M109.974 57.4487C105.547 57.475 101.713 58.5946 98.4977 60.2615C97.3105 57.7875 96.1233 55.6258 95.9257 54.0115C95.7031 52.1365 95.431 50.9904 95.7031 48.7511C95.9749 46.5112 97.2116 43.3341 97.2116 43.0737C97.1866 42.8393 96.9393 41.6935 94.392 41.6675C91.8447 41.6414 89.6432 42.1883 89.3959 42.8914C89.1485 43.5946 88.6539 45.2091 88.3323 46.8758C87.8871 49.3237 83.2373 57.9956 80.5908 62.5529C79.7252 60.782 78.9832 59.2196 78.8345 57.9693C78.6122 56.0946 78.3399 54.9485 78.6122 52.7091C78.8842 50.4693 80.1209 47.2925 80.1209 47.0321C80.0962 46.7977 79.8488 45.6518 77.3016 45.6258C74.7538 45.5998 72.5528 46.1466 72.3055 46.8498C72.0581 47.5529 71.7861 49.2196 71.2419 50.8341C70.7223 52.4487 64.539 66.9279 62.9313 70.7039C62.1151 72.631 61.3981 74.1675 60.8785 75.2091C60.3591 76.2508 60.8537 75.2873 60.8043 75.3914C60.3591 76.2768 60.1117 76.7716 60.1117 76.7716V76.7979C59.7655 77.449 59.3945 78.0737 59.2211 78.0737C59.0974 78.0737 58.8501 76.3289 59.2705 73.9333C60.1857 68.9071 62.4117 61.0688 62.3872 60.7823C62.3872 60.6521 62.8074 59.2716 60.9524 58.5688C59.1469 57.8656 58.5041 59.0375 58.3554 59.0375C58.207 59.0375 58.0834 59.4542 58.0834 59.4542C58.0834 59.4542 60.0867 50.6263 54.2497 50.6263C50.5892 50.6263 45.5436 54.819 43.0456 58.6472C41.4626 59.5586 38.0989 61.4854 34.5373 63.543C33.177 64.3242 31.7672 65.1576 30.4316 65.9128L30.1598 65.5998C23.0861 57.6571 10.0022 52.0321 10.5463 41.355C10.7442 37.4748 12.0303 27.2404 35.6755 14.8446C55.0417 4.68832 70.5494 7.47477 73.2451 13.6727C77.0787 22.5269 64.9594 38.9852 44.8268 41.355C37.1595 42.2664 33.1278 39.1414 32.114 37.9696C31.0504 36.7456 30.902 36.6935 30.5063 36.9279C29.8632 37.2925 30.259 38.3862 30.5063 39.0373C31.0999 40.6779 33.5732 43.5946 37.7779 45.0529C41.4629 46.3289 50.466 47.0321 61.3486 42.605C73.5421 37.631 83.0644 23.8289 80.2696 12.2925C77.4252 0.547694 58.9248 -3.30647 41.4384 3.22998C31.0255 7.13623 19.7471 13.23 11.6346 21.2248C1.98864 30.7039 0.45518 38.9852 1.09824 42.4227C3.34921 54.6883 19.4008 62.6831 25.8315 68.5946C25.5099 68.7766 25.2131 68.9589 24.9411 69.1154C21.7258 70.7818 9.48281 77.5268 6.41589 84.662C2.95324 92.7349 6.96002 98.5425 9.63121 99.3237C17.8921 101.746 26.3509 97.3966 30.9265 90.2352C35.4772 83.0737 34.9333 73.7768 32.831 69.5321L32.7565 69.3758L35.2793 67.8133C36.912 66.7977 38.5196 65.8602 39.9292 65.0526C39.138 67.3182 38.5688 70.0005 38.2723 73.9068C37.926 78.4904 39.7068 84.4276 42.0565 86.7714C43.0953 87.7867 44.3319 87.813 45.0987 87.813C47.8193 87.813 49.056 85.443 50.4163 82.6047C52.0982 79.1412 53.5822 75.1307 53.5822 75.1307C53.5822 75.1307 51.7272 85.9901 56.7975 85.9901C58.6525 85.9901 60.5075 83.4641 61.3484 82.162V82.188C61.3484 82.188 61.3979 82.1099 61.4968 81.9276C61.6006 81.7661 61.6995 81.6011 61.7936 81.4331V81.381C62.5356 80.0268 64.1927 76.9279 66.666 71.7977C69.8564 65.1831 72.9235 56.9018 72.9235 56.9018C72.9235 56.9018 73.2203 58.9331 74.1355 62.2664C74.6794 64.2458 75.8665 66.4071 76.7817 68.5164C76.0397 69.6102 75.5945 70.2354 75.5945 70.2354L75.6192 70.2615C75.0259 71.0948 74.3578 71.9805 73.6655 72.8656C71.1427 76.0427 68.1253 79.6628 67.7296 80.7044C67.2596 81.9281 67.3586 82.8396 68.2737 83.569C68.9415 84.0899 70.1287 84.1938 71.3901 84.0899C73.6655 83.9333 75.2485 83.3347 76.0399 82.9698C77.2766 82.5011 78.6864 81.7979 80.0467 80.7563C82.52 78.8294 84.0288 76.0951 83.8804 72.4492C83.8062 70.444 83.1878 68.4649 82.4211 66.5899C82.6437 66.2513 82.8665 65.9125 83.0889 65.5482C86.9967 59.5323 90.0142 52.918 90.0142 52.918C90.0142 52.918 90.311 54.9492 91.2261 58.2826C91.6958 59.9753 92.6359 61.8245 93.4769 63.6474C89.8163 66.7985 87.5161 70.4443 86.7247 72.8401C85.2654 77.2672 86.4032 79.2724 88.5549 79.7412C89.5193 79.9495 90.9046 79.4808 91.9431 79.012C93.2293 78.5693 94.7875 77.8138 96.2222 76.6943C98.6956 74.7672 101.07 72.0849 100.946 68.4651C100.872 66.7985 100.452 65.1578 99.8828 63.5953C102.999 62.2412 107.03 61.4599 112.15 62.111C123.157 63.4651 125.333 70.7047 124.913 73.7255C124.493 76.7466 122.192 78.413 121.425 78.9339C120.659 79.4287 120.411 79.6112 120.486 79.9755C120.584 80.5227 120.931 80.4964 121.599 80.3925C122.514 80.236 127.386 77.9185 127.584 72.3458C127.881 65.1833 121.425 57.3709 109.974 57.4487ZM25.0895 87.5789C21.4537 91.7716 16.3339 93.3602 14.1574 92.006C11.8077 90.5737 12.7226 84.4018 17.1996 79.9487C19.9202 77.2404 23.4571 74.7404 25.782 73.2039C26.3014 72.8654 27.0929 72.3709 28.0327 71.7716C28.1811 71.6677 28.2801 71.6154 28.2801 71.6154C28.4532 71.5112 28.6511 71.381 28.8489 71.2508C30.5061 77.605 28.9231 83.1779 25.0895 87.5789ZM51.6777 68.5425C50.4163 71.7977 47.7451 80.1571 46.1375 79.6883C44.7521 79.2977 43.9115 72.9696 45.8651 66.7196C46.8545 63.5682 48.9568 59.8185 50.1935 58.3599C52.1971 56.0162 54.3734 55.2349 54.9177 56.1985C55.5608 57.4487 52.4692 66.5112 51.6777 68.5425ZM73.6161 79.5841C73.0719 79.8708 72.5773 80.0789 72.3547 79.9229C72.1815 79.8188 72.577 79.4281 72.577 79.4281C72.577 79.4281 75.3224 76.3292 76.4107 74.8969C77.029 74.0638 77.771 73.1003 78.5625 72.0063V72.3188C78.5627 76.0685 75.1495 78.5685 73.6161 79.5841ZM90.5333 75.5216C90.1376 75.2091 90.1873 74.2456 91.5227 71.2248C92.0423 70.0268 93.2293 68.0216 95.2821 66.1206C95.5295 66.9018 95.6781 67.6568 95.6531 68.3602C95.6286 73.0477 92.4628 74.7925 90.5333 75.5216Z" fill="#CF649A"/>
</svg>

<svg width="128" height="100" fill="none" xmlns="http://www.w3.org/2000/svg"><path d="M109.974 57.449c-4.427.026-8.261 1.146-11.476 2.813-1.188-2.474-2.375-4.636-2.572-6.25-.223-1.876-.495-3.022-.223-5.26.272-2.24 1.509-5.418 1.509-5.678-.025-.235-.273-1.38-2.82-1.407-2.547-.026-4.749.521-4.996 1.224a31.14 31.14 0 0 0-1.064 3.985c-.445 2.448-5.095 11.12-7.741 15.677-.866-1.771-1.608-3.333-1.756-4.584-.223-1.874-.495-3.02-.223-5.26.272-2.24 1.509-5.417 1.509-5.677-.025-.234-.272-1.38-2.82-1.406-2.547-.026-4.748.52-4.996 1.224-.247.703-.519 2.37-1.063 3.984-.52 1.615-6.703 16.094-8.31 19.87a82.362 82.362 0 0 1-2.053 4.505c-.52 1.042-.025.078-.075.182l-.692 1.38v.027c-.346.651-.718 1.276-.89 1.276-.125 0-.372-1.745.048-4.14.916-5.027 3.142-12.865 3.117-13.152 0-.13.42-1.51-1.435-2.213-1.805-.703-2.448.468-2.597.468-.148 0-.272.417-.272.417s2.004-8.828-3.833-8.828c-3.66 0-8.706 4.193-11.204 8.021-1.583.912-4.947 2.838-8.509 4.896-1.36.781-2.77 1.615-4.105 2.37l-.272-.313c-7.074-7.943-20.158-13.568-19.614-24.245.198-3.88 1.484-14.115 25.13-26.51 19.366-10.157 34.873-7.37 37.57-1.172 3.833 8.854-8.287 25.312-28.42 27.682-7.666.911-11.698-2.214-12.712-3.385-1.064-1.224-1.212-1.276-1.608-1.042-.643.364-.247 1.458 0 2.11.594 1.64 3.067 4.557 7.272 6.015 3.685 1.276 12.688 1.98 23.57-2.448 12.194-4.974 21.716-18.776 18.922-30.312C77.425.548 58.925-3.307 41.438 3.23c-10.413 3.906-21.69 10-29.803 17.995C1.989 30.704.455 38.985 1.098 42.423c2.251 12.265 18.303 20.26 24.733 26.172-.321.182-.618.364-.89.52-3.215 1.667-15.458 8.412-18.525 15.547-3.463 8.073.544 13.88 3.215 14.662 8.261 2.422 16.72-1.927 21.296-9.089 4.55-7.161 4.006-16.458 1.904-20.703l-.075-.156 2.523-1.563a149.82 149.82 0 0 1 4.65-2.76c-.791 2.265-1.36 4.948-1.657 8.854-.346 4.583 1.435 10.52 3.785 12.864 1.038 1.016 2.275 1.042 3.042 1.042 2.72 0 3.957-2.37 5.317-5.208 1.682-3.464 3.166-7.474 3.166-7.474s-1.855 10.86 3.215 10.86c1.856 0 3.71-2.527 4.551-3.829v.026s.05-.078.149-.26a9.51 9.51 0 0 0 .297-.495v-.052c.742-1.354 2.399-4.453 4.872-9.583 3.19-6.615 6.258-14.896 6.258-14.896s.296 2.031 1.211 5.364c.544 1.98 1.731 4.141 2.647 6.25a100.72 100.72 0 0 1-1.188 1.72l.025.025a73.409 73.409 0 0 1-1.954 2.605c-2.522 3.177-5.54 6.797-5.935 7.838-.47 1.224-.371 2.136.544 2.865.668.52 1.855.625 3.116.52 2.275-.156 3.859-.754 4.65-1.12a15.834 15.834 0 0 0 4.007-2.213c2.473-1.927 3.982-4.66 3.833-8.307-.074-2.005-.692-3.984-1.459-5.86.223-.338.445-.677.668-1.04 3.908-6.017 6.925-12.631 6.925-12.631s.297 2.031 1.212 5.365c.47 1.692 1.41 3.541 2.25 5.364-3.66 3.152-5.96 6.797-6.751 9.193-1.46 4.427-.322 6.432 1.83 6.901.964.209 2.35-.26 3.388-.729a15.08 15.08 0 0 0 4.28-2.318c2.473-1.927 4.847-4.61 4.723-8.229-.074-1.666-.494-3.307-1.063-4.87 3.116-1.354 7.147-2.135 12.267-1.484 11.007 1.354 13.183 8.594 12.763 11.614-.42 3.022-2.721 4.688-3.488 5.209-.766.495-1.014.677-.939 1.041.098.548.445.521 1.113.418.915-.157 5.787-2.475 5.985-8.047.297-7.163-6.159-14.975-17.61-14.897Zm-84.885 30.13c-3.635 4.193-8.755 5.781-10.932 4.427-2.35-1.432-1.434-7.604 3.043-12.057 2.72-2.709 6.257-5.209 8.582-6.745.52-.339 1.31-.833 2.25-1.432.15-.104.248-.157.248-.157.173-.104.371-.234.569-.364 1.657 6.354.074 11.927-3.76 16.328Zm26.589-19.036c-1.262 3.255-3.933 11.614-5.54 11.145-1.386-.39-2.227-6.718-.273-12.968.99-3.152 3.092-6.901 4.328-8.36 2.004-2.344 4.18-3.125 4.725-2.161.643 1.25-2.449 10.312-3.24 12.344Zm21.938 11.041c-.544.287-1.039.495-1.261.339-.174-.104.222-.495.222-.495s2.745-3.099 3.834-4.531c.618-.833 1.36-1.797 2.151-2.89v.312c0 3.75-3.412 6.25-4.946 7.265Zm16.917-4.062c-.395-.313-.346-1.276.99-4.297.52-1.198 1.706-3.203 3.76-5.104.246.78.395 1.536.37 2.24-.024 4.687-3.19 6.431-5.12 7.16Z" fill="#CF649A"/></svg>
